X:1
T:Give Thanks to God, for Good Is He
T:Text: Psalm 136:1-9, 23-26; vers. Psalter, 1912, alt. Tune: Arthur S. Sullivan, 1873
T:87 87 D CONSTANCE www.hymnary.org/text/give_thanks_to_god_for_good_is_he_his
T:Give Thanks to God, for Good Is He
T:This hymn is in the public domain. You may freely use this score for personal and congregational worship. If you reproduce the score, please credit Hymnary.org as the source. 
T:This hymn is in the public domain. You may freely use this score for personal and congregational worship. If you reproduce the score, please credit Hymnary.org as the source. 
Z:This hymn is in the public domain. You may freely use this score for personal and congregational worship. If you reproduce the score, please credit Hymnary.org as the source.
%%score ( 1 2 ) ( 3 4 )
L:1/8
M:4/4
K:Eb
V:1 treble nm="SOPRANO ALTO" snm="S. A."
V:2 treble 
V:3 bass nm="TENOR BASS" snm="T. B."
V:4 bass 
V:1
"^May be sung antiphonally""^1""^2""^3" G2 | G2 G2 A2 F2 | B3 c B2 A2 | G2 G2 A2 F2 | F2 E4 | G2 | %6
w: Give|thanks to God, for|good is he: *|||To|
w: His|wis- dom made the|heavens to be: his|love a- bides for-|ev- er.|He|
w: He|helped us in our|deep- est woes: *|||He|
 B2 A2 A2 G2 | G3 F E2 E2 | D2 G2 B2 =A2 | =A2 G4 | G2 | G2 FG A2 A2 | G2 FG A2 B2 | c3 B A2 G2 | %14
w: him all praise and|glo- ry be: *|||His|won- drous _ works with|praise re- * cord: *||
w: spread the earth up-|on the sea: his|mer- cy lasts for-|ev- er.|Praise|him whose _ sun a-|wakes the * day: his|love a- bides for-|
w: ran- somed us from|all our foes: *|||Each|crea- ture's _ need he|will sup- * ply: *||
 G2 F4 |1 B2 | B2 B2 e3 G | G2 A2 B3 E | E2 E2 G3 F | F2 E4 x2 |] %20
w: |The|on- ly God, the|so- vereign Lord: *|||
w: ev- er.|The|moon and stars his|might dis- play: his|mer- cy lasts for-|ev- er.|
w: |Give|thanks to God, en-|throned on high: *|||
V:2
 E2 | E2 E2 D2 D2 | E3 E E2 E2 | E2 E2 D2 D2 | D2 E4 | E2 | G2 F2 F2 E2 | D3 D C2 C2 | %8
 B,2 D2 G2 ^F2 | ^F2 G4 | G2 | =E2 DE F2 F2 | =E2 DE F2 G2 | A3 G F2 E2 | E2 D4 |1 D2 | %16
 E2 D2 E3 E | D2 C2 B,3 C | B,2 B,2 E3 D | D2 E4 x2 |] %20
V:3
 B,2 | B,2 B,2 B,2 B,2 | B,3 A, B,2 C2 | B,2 B,2 F,2 A,2 | A,2 G,4 | B,2 | B,2 B,2 B,2 B,2 | %7
 =B,3 B, C2 G,2 | G,2 B,2 D2 C2 | C2 B,4 | G,2 | B,2 B,2 A,2 C2 | C2 C2 C2 _D2 | C3 C C2 C2 | %14
 B,2 B,4 |1 B,2 | B,2 A,2 G,3 E, | E,2 E,2 E,3 A, | G,2 G,2 B,3 A, | A,2 G,4 x2 |] %20
V:4
 E,2 | E,2 E,2 F,2 A,2 | G,3 A, G,2 A,2 | B,2 B,,2 B,,2 B,,2 | B,,2 E,4 | E,2 | D,2 D,2 E,2 E,F, | %7
 G,3 G, C,2 C,2 | D,2 D,2 D,2 D,2 | D,2 G,,4 | G,2 | C,2 C,2 F,2 A,,B,, | C,2 C,2 F,2 E,2 | %13
 A,3 A,, A,,2 =A,,2 | B,,2 B,,4 |1 A,2 | G,2 F,2 E,3 C, | B,,2 A,,2 G,,3 A,, | B,,2 B,,2 B,,3 B,, | %19
 B,,2 E,4 x2 |] %20

